images/icons/google.svg

<!-- Generated by IcoMoon.io -->
<svg version="1.1" xmlns="http://www.w3.org/2000/svg" width="16" height="16" viewBox="0 0 16 16">
<title>google</title>
<path d="M13.933 5.933v1.333h1.333v1.333h-1.333v1.333h-1.333v-1.333h-1.333v-1.333h1.333v-1.333h1.333zM2 11.267c-1.8-1.8-1.8-4.867 0.067-6.667 1.333-1.333 3.267-1.6 4.933-0.933l0.667 0.4 0.733 0.533-1.2 1.2-0.467-0.267c-1-0.733-2.467-0.6-3.4 0.333-1.133 1.133-1.2 3.067 0 4.267 1.133 1.2 3.067 1.2 4.133 0 0.267-0.267 0.6-0.733 0.667-1.2v-0.133h-2.667v-1.467h4.2l0.067 0.4v1c-0.067 0.933-0.467 1.933-1.133 2.6-1.733 1.733-4.867 1.733-6.6-0.067z"></path>
</svg>

<svg xmlns="http://www.w3.org/2000/svg" width="16" height="16" viewBox="0 0 16 16"><title>google</title><path d="M13.933 5.933v1.333h1.333v1.333h-1.333v1.333H12.6V8.599h-1.333V7.266H12.6V5.933h1.333zM2 11.267C.2 9.467.2 6.4 2.067 4.6 3.4 3.267 5.334 3 7 3.667l.667.4.733.533-1.2 1.2-.467-.267c-1-.733-2.467-.6-3.4.333-1.133 1.133-1.2 3.067 0 4.267 1.133 1.2 3.067 1.2 4.133 0 .267-.267.6-.733.667-1.2V8.8H5.466V7.333h4.2l.067.4v1c-.067.933-.467 1.933-1.133 2.6-1.733 1.733-4.867 1.733-6.6-.067z"/></svg>
